X: 120
T:Rolandskvadet
Z:Transcribed by Frank Nordberg - http://www.musicaviva.com
M:C
L:1/4
Q:1/4=120
K:EMin % Transposed from DMin
% dorian/minor hexatonic
B B/B/ B B|A G E E/D/|E E/E/ G A |B2 BB |
B B    G A|A E E E   |G G/G/ F D |E2 E2||
G G/G/ B B|A G G E   |E E    G A |B2 B2 |
B B    G A|A E E E   |G2    (F D)|E2 E2|]

Here is an example from 16th century France:

